icons/icn_brocha.svg

<svg width="24" xmlns="http://www.w3.org/2000/svg" height="24" id="screenshot-0ef66420-1100-8022-8006-9da3c925fde1" viewBox="0 0 24 24" xmlns:xlink="http://www.w3.org/1999/xlink" fill="none" version="1.1"><g id="shape-0ef66420-1100-8022-8006-9da3c925fde1"><g class="frame-container-wrapper"><g class="frame-container-blur"><g class="frame-container-shadows"><g fill="none"><g class="fills" id="fills-0ef66420-1100-8022-8006-9da3c925fde1"><rect rx="0" ry="0" x="0" y="0" width="24" height="24.000000000000455" transform="matrix(1, 0, 0, 1, 0, 0)" class="frame-background"/></g><g class="frame-children"><g id="shape-0ef66420-1100-8022-8006-9da19c7c5344" rx="0" ry="0"><g id="shape-0ef66420-1100-8022-8006-9da0ce7be9ab" style="opacity: 1;"><g class="fills" id="fills-0ef66420-1100-8022-8006-9da0ce7be9ab"><path d="M15.477587699890137,2.1290283203125C15.308886528015137,2.14013671875,15.151904106140137,2.218994140625,15.042040824890137,2.3477783203125L11.608691215515137,6.341796875C11.597460746765137,6.3505859375,11.586474418640137,6.359375,11.575488090515137,6.3685302734375C11.564257621765137,6.38427734375,11.554247856140137,6.400390625,11.543993949890137,6.4169921875L10.151659965515137,8.036376953125C10.150683403015137,8.036865234375,10.149706840515137,8.037353515625,10.149706840515137,8.0382080078125C10.148974418640137,8.0396728515625,10.147997856140137,8.04052734375,10.147997856140137,8.0419921875L10.144335746765137,8.045654296875C10.138720512390137,8.052978515625,10.135058403015137,8.060791015625,10.130419731140137,8.0682373046875C10.093554496765137,8.1148681640625,10.064013481140137,8.166015625,10.042773246765137,8.220947265625C10.026171684265137,8.2611083984375,10.014208793640137,8.3031005859375,10.006640434265137,8.345947265625C10.002245903015137,8.3695068359375,9.999316215515137,8.3939208984375,9.997607231140137,8.41796875C9.991991996765137,8.4437255859375,9.988329887390137,8.4700927734375,9.985644340515137,8.496337890625C9.985644340515137,8.496337890625,10.029833793640137,9.1058349609375,9.927294731140137,9.890625C9.824023246765137,10.6759033203125,9.560107231140137,11.5916748046875,9.083056449890137,12.146728515625C8.537646293640137,12.7806396484375,7.621386528015137,13.511962890625,6.681200981140137,14.2464599609375C5.741015434265137,14.98046875,4.775683403015137,15.716796875,4.094775199890137,16.508056640625C3.381396532058716,17.328857421875,2.955127000808716,18.1201171875,2.968066453933716,18.961181640625C2.981005907058716,19.80224609375,3.456347703933716,20.5518798828125,4.190722465515137,21.211181640625C4.856005668640137,21.8087158203125,5.664355278015137,22.091552734375,6.438525199890137,21.9222412109375C7.213671684265137,21.7532958984375,7.876269340515137,21.220458984375,8.533984184265137,20.455078125C9.215136528015137,19.663818359375,9.810107231140137,18.59619140625,10.401659965515137,17.548828125C10.993212699890137,16.5020751953125,11.580859184265137,15.4736328125,12.126269340515137,14.8402099609375C12.603320121765137,14.28515625,13.453173637390137,13.90966796875,14.198779106140137,13.7052001953125C14.944384574890137,13.5013427734375,15.536669731140137,13.461181640625,15.536669731140137,13.461181640625C15.550585746765137,13.4578857421875,15.563525199890137,13.4537353515625,15.577441215515137,13.4495849609375C15.626269340515137,13.4422607421875,15.674120903015137,13.4293212890625,15.720263481140137,13.410888671875C15.744433403015137,13.4034423828125,15.768359184265137,13.394775390625,15.792284965515137,13.384521484375C15.854052543640137,13.351806640625,15.910449028015137,13.3089599609375,15.958300590515137,13.2572021484375C15.962206840515137,13.252197265625,15.965868949890137,13.24755859375,15.970507621765137,13.242431640625C15.970507621765137,13.2415771484375,15.971240043640137,13.2410888671875,15.972216606140137,13.2401123046875L20.870166778564453,7.543212890625C21.091602325439453,7.2857666015625,21.066699981689453,6.8995361328125,20.815723419189453,6.672119140625L18.377735137939453,4.482421875L15.934374809265137,2.285400390625C15.809863090515137,2.1741943359375,15.644579887390137,2.117919921875,15.477587699890137,2.1290283203125ZM15.573534965515137,3.642822265625L17.098926544189453,5.01171875L15.666796684265137,6.697509765625C15.557909965515137,6.822998046875,15.504443168640137,6.9873046875,15.516406059265137,7.1533203125C15.529345512390137,7.3194580078125,15.606738090515137,7.4739990234375,15.733202934265137,7.5819091796875C15.860644340515137,7.6907958984375,16.025684356689453,7.7447509765625,16.191944122314453,7.73095703125C16.358936309814453,7.717529296875,16.512989044189453,7.6378173828125,16.619922637939453,7.510009765625L18.030811309814453,5.8494873046875L19.522998809814453,7.1898193359375L16.866504669189453,10.2813720703125L12.917040824890137,6.7325439453125ZM12.100390434265137,7.6834716796875L16.056201934814453,11.226806640625L15.439013481140137,11.945556640625L11.487841606140137,8.396728515625ZM11.192431449890137,9.810791015625L14.112841606140137,12.4337158203125C14.030810356140137,12.45263671875,13.957079887390137,12.4678955078125,13.864794731140137,12.4923095703125C12.992724418640137,12.7313232421875,11.927050590515137,13.1534423828125,11.178515434265137,14.0235595703125C10.498583793640137,14.8148193359375,9.903368949890137,15.8824462890625,9.312060356140137,16.9296875C8.720507621765137,17.97705078125,8.132616996765137,19.0050048828125,7.587450981140137,19.638916015625C7.019824028015137,20.298583984375,6.528124809265137,20.625244140625,6.170947074890137,20.7032470703125C5.814745903015137,20.78125,5.503710746765137,20.7042236328125,5.028613090515137,20.2774658203125C4.432421684265137,19.74267578125,4.229540824890137,19.3348388671875,4.223925590515137,18.943603515625C4.217577934265137,18.5518798828125,4.430712699890137,18.0281982421875,5.042529106140137,17.32421875C5.587695121765137,16.6903076171875,6.512255668640137,15.964599609375,7.452685356140137,15.23046875C8.392870903015137,14.4964599609375,9.349658012390137,13.754150390625,10.030810356140137,12.962890625C10.779101371765137,12.0927734375,11.048632621765137,10.9605712890625,11.167529106140137,10.05078125C11.178515434265137,9.9603271484375,11.184130668640137,9.89111328125,11.192431449890137,9.810302734375Z" style="display: inline; stroke-linecap: round; stroke-linejoin: round; fill: rgb(0, 0, 0); fill-opacity: 1;"/></g></g><g id="shape-0ef66420-1100-8022-8006-9da0ce7c22b4" style="opacity: 1;"><g class="fills" id="fills-0ef66420-1100-8022-8006-9da0ce7c22b4"><ellipse cx="6.408053064339583" cy="18.56355971985056" rx="0.9373228317272151" ry="0.9411023617352612" transform="matrix(0.747381, 0.664396, -0.64853, 0.761189, 13.657827, 0.175697)" style="stroke-opacity: 1; stroke: none; stroke-width: 0.33107; stroke-linejoin: round; stroke-dasharray: none; display: inline; stroke-linecap: round; fill: rgb(0, 0, 0); fill-opacity: 1;"/></g></g></g></g></g></g></g></g></g></svg>

<svg fill="none" viewBox="0 0 24 24"><g class="frame-container-wrapper"><g class="frame-container-blur"><g class="frame-container-shadows"><g class="fills"><rect width="24" height="24" class="frame-background" rx="0" ry="0"/></g><g class="frame-children"><path fill="#000" d="M15.4776 2.129a.6265.6265 0 0 0-.4356.2188l-3.4333 3.994a1.3819 1.3819 0 0 0-.0332.0267.8671.8671 0 0 0-.0315.0485l-1.3923 1.6194c-.001.0005-.002.001-.002.0018-.0007.0015-.0017.0023-.0017.0038l-.0037.0037c-.0056.0073-.0092.015-.0139.0225a.5877.5877 0 0 0-.0876.1527.6006.6006 0 0 0-.0362.125.6449.6449 0 0 0-.009.072.706.706 0 0 0-.012.0784s.0442.6095-.0583 1.3943c-.1033.7853-.3672 1.701-.8442 2.2561-.5455.634-1.4617 1.3653-2.4019 2.0998-.9402.734-1.9055 1.4703-2.5864 2.2616-.7134.8208-1.1397 1.612-1.1267 2.453.013.8411.4882 1.5908 1.2226 2.25.6653.5976 1.4737.8805 2.2478.7111.7752-.1689 1.4378-.7017 2.0955-1.4671.6811-.7913 1.2761-1.859 1.8677-2.9063.5915-1.0467 1.1792-2.0752 1.7246-2.7086.477-.555 1.3269-.9305 2.0725-1.135.7456-.2039 1.3379-.244 1.3379-.244.0139-.0033.0268-.0075.0407-.0116a.641.641 0 0 0 .1429-.0387.7212.7212 0 0 0 .072-.0264.6232.6232 0 0 0 .166-.1273.2514.2514 0 0 1 .0122-.0148c0-.0008.0007-.0013.0017-.0023l4.898-5.6969a.6252.6252 0 0 0-.0545-.871l-2.438-2.1898-2.4433-2.197a.6244.6244 0 0 0-.4568-.1564Zm.096 1.5138 1.5253 1.369-1.4321 1.6857a.6264.6264 0 0 0 .0664.8844.6268.6268 0 0 0 .4587.149.6228.6228 0 0 0 .428-.2209l1.411-1.6605 1.4921 1.3403-2.6565 3.0916-3.9495-3.5489Zm-3.4732 4.0407 3.9558 3.5433-.6172.7188-3.9512-3.5489Zm-.908 2.1273 2.9204 2.623c-.082.0188-.1557.0341-.248.0585-.872.239-1.9377.6611-2.6863 1.5313-.68.7912-1.2751 1.8588-1.8664 2.906-.5916 1.0475-1.1795 2.0754-1.7246 2.7093-.5677.6597-1.0594.9863-1.4166 1.0643-.3562.078-.6672.001-1.1423-.4257-.5962-.5348-.799-.9427-.8047-1.3339-.0063-.3917.2068-.9154.8186-1.6194.5452-.6339 1.4698-1.3596 2.4102-2.0937.9402-.734 1.897-1.4763 2.5781-2.2676.7483-.8701 1.0178-2.0023 1.1367-2.9121.011-.0905.0166-.1597.025-.2405Z" class="fills"/><ellipse cx="6.4081" cy="18.5636" fill="#000" class="fills" rx=".9373" ry=".9411" transform="matrix(.74738 .6644 -.64853 .76119 13.6578 .1757)"/></g></g></g></g></svg>
